X: 22594
T: Lady Of The Lake
R: reel
M: 4/4
K: Dmixolydian
|:A2B2 c2d2|egfa g2 dc|BAGA Bcd2|BcB^c dcB^c|
ABAB cB^cd|egfa gfef|gbge dcB^c|1 AFD2 D4:|2 AFD2 D2 eg||
|:a2 a2 a4|abag e2 ef|gfge dega|bagf e2 eg|
a2 a2 a4|abag edef|gedg edbd|1 AFD2 D2 eg:|2 AFD2 D4||

